X: 9905
T: Desert Storm
R: reel
M: 4/4
K: Adorian
e2e2 A2A2|edeg gfed|e2 de A2e2|dBdG GedB|
Beef A2A2|edea agge|dBdg gedB|Be A2A4:|
e2e2 a2ag|gefd eABd|e2 de A2 ed|dedB GGBd|
[1 e2e2 a2ag|gefd e2dB|GABg gedB|BeA2 A4:|
[2e2e2 A2A2|edea agge|dBdg gedB|e2 a2z4||
edeA AeA2|Aeef gfed|edeA AeA2|ddBd gdBG|
edeA AeA2|Aeef g2fe|dBdg gedB|Be A2A4:|
a2e2e2fg|aeag gedB|g2fg Bdgg|gBBg Bdge|
[1a2a2 gedB|dgfe eddB|GABg gedB|BeA2 A4:|
[2edeA AeA2|Aeef g2fe|dBdg gedB|Be A2A4||

